app/assets/images/icons/wheelchair.svg

<svg width="100" height="100" viewBox="0 0 100 100" fill="none" xmlns="http://www.w3.org/2000/svg">
<path d="M67.3828 86.8164C67.3828 89.2396 69.3541 91.2109 71.7773 91.2109C74.2006 91.2109 76.1719 89.2396 76.1719 86.8164C76.1719 84.3932 74.2006 82.4219 71.7773 82.4219C69.3541 82.4219 67.3828 84.3932 67.3828 86.8164ZM73.2422 86.8164C73.2422 87.6242 72.5852 88.2812 71.7773 88.2812C70.9695 88.2812 70.3125 87.6242 70.3125 86.8164C70.3125 86.0086 70.9695 85.3516 71.7773 85.3516C72.5852 85.3516 73.2422 86.0086 73.2422 86.8164Z" fill="#251007"/>
<path d="M27.832 47.2656C15.7162 47.2656 5.85938 57.1225 5.85938 69.2383C5.85938 81.3541 15.7162 91.2109 27.832 91.2109C39.9479 91.2109 49.8047 81.3541 49.8047 69.2383C49.8047 57.1225 39.9479 47.2656 27.832 47.2656ZM27.832 88.2812C17.3316 88.2812 8.78906 79.7387 8.78906 69.2383C8.78906 58.7379 17.3316 50.1953 27.832 50.1953C38.3324 50.1953 46.875 58.7379 46.875 69.2383C46.875 79.7387 38.3324 88.2812 27.832 88.2812Z" fill="#251007"/>
<path d="M27.832 63.3789C24.6012 63.3789 21.9727 66.0074 21.9727 69.2383C21.9727 72.4691 24.6012 75.0977 27.832 75.0977C31.0629 75.0977 33.6914 72.4691 33.6914 69.2383C33.6914 66.0074 31.0629 63.3789 27.832 63.3789ZM27.832 72.168C26.2166 72.168 24.9023 70.8537 24.9023 69.2383C24.9023 67.6229 26.2166 66.3086 27.832 66.3086C29.4475 66.3086 30.7617 67.6229 30.7617 69.2383C30.7617 70.8537 29.4475 72.168 27.832 72.168Z" fill="#251007"/>
<path d="M98.5352 79.4922H86.8453L83.3354 61.9426C82.6531 58.5309 79.6326 56.0547 76.1535 56.0547H73.2422V34.082C73.2422 30.0434 69.9566 26.7578 65.918 26.7578H61.376C60.6955 23.4188 57.7363 20.8984 54.1992 20.8984H32.2266V10.2539C32.2266 6.21523 28.941 2.92969 24.9023 2.92969H4.39453C3.1416 2.92969 1.94375 3.47012 1.10801 4.41211C0.274023 5.35215 -0.118164 6.60742 0.0318359 7.85625C0.296484 10.0582 2.20547 11.7188 4.47188 11.7188H23.4375V41.7543C10.1717 43.8678 0 55.3867 0 69.2383C0 84.585 12.4854 97.0703 27.832 97.0703C43.1787 97.0703 55.6641 84.585 55.6641 69.2383C55.6641 65.6189 54.9689 62.1592 53.7064 58.9844H70.3125V67.7734H60.0586C59.2496 67.7734 58.5938 68.4293 58.5938 69.2383C58.5938 70.0473 59.2496 70.7031 60.0586 70.7031H70.3125V76.6688C65.3502 77.3818 61.5234 81.6598 61.5234 86.8164C61.5234 92.4705 66.1232 97.0703 71.7773 97.0703C77.4314 97.0703 82.0312 92.4705 82.0312 86.8164C82.0312 81.6598 78.2045 77.382 73.2422 76.6688V58.9844H76.1535C78.241 58.9844 80.0533 60.4701 80.4627 62.517L84.2029 81.218C84.2062 81.2367 84.21 81.2553 84.2141 81.2738L85.3801 87.1037C85.517 87.7885 86.1182 88.2812 86.8164 88.2812H98.5352C99.3441 88.2812 100 87.6254 100 86.8164V80.957C100 80.148 99.3441 79.4922 98.5352 79.4922ZM79.1016 86.8164C79.1016 90.8551 75.816 94.1406 71.7773 94.1406C67.7387 94.1406 64.4531 90.8551 64.4531 86.8164C64.4531 82.7777 67.7387 79.4922 71.7773 79.4922C75.816 79.4922 79.1016 82.7777 79.1016 86.8164ZM54.1992 23.8281C56.109 23.8281 57.7371 25.0529 58.3418 26.7578H32.2266V23.8281H54.1992ZM4.47188 8.78906C3.69961 8.78906 3.02695 8.22578 2.94062 7.50684C2.88984 7.0832 3.01738 6.67461 3.29961 6.35625C3.57988 6.04043 3.97891 5.85938 4.39453 5.85938H23.4375V8.78906H4.47188ZM26.3672 6.11133C28.0721 6.71602 29.2969 8.34414 29.2969 10.2539V41.4447C28.8117 41.4195 28.3234 41.4062 27.832 41.4062C27.3406 41.4062 26.8523 41.4195 26.3672 41.4447V6.11133ZM27.832 94.1406C14.1008 94.1406 2.92969 82.9695 2.92969 69.2383C2.92969 55.507 14.1008 44.3359 27.832 44.3359C41.5633 44.3359 52.7344 55.507 52.7344 69.2383C52.7344 82.9695 41.5633 94.1406 27.832 94.1406ZM52.3379 56.0547C48.2961 48.5719 40.927 43.1404 32.2266 41.7543V38.4766H60.0586C60.8676 38.4766 61.5234 37.8207 61.5234 37.0117C61.5234 36.2027 60.8676 35.5469 60.0586 35.5469H32.2266V29.6875H65.918C68.3412 29.6875 70.3125 31.6588 70.3125 34.082V35.5469H65.918C65.109 35.5469 64.4531 36.2027 64.4531 37.0117C64.4531 37.8207 65.109 38.4766 65.918 38.4766H70.3125V56.0547H52.3379ZM97.0703 85.3516H88.0172L87.4313 82.4219H97.0703V85.3516Z" fill="#251007"/>
</svg>

<svg width="100" height="100" viewBox="0 0 100 100" xmlns="http://www.w3.org/2000/svg">
<path d="m67.383 86.816c0 2.4232 1.9713 4.3945 4.3945 4.3945 2.4233 0 4.3946-1.9713 4.3946-4.3945s-1.9713-4.3945-4.3946-4.3945c-2.4232 0-4.3945 1.9713-4.3945 4.3945zm5.8594 0c0 0.8078-0.657 1.4648-1.4649 1.4648-0.8078 0-1.4648-0.657-1.4648-1.4648s0.657-1.4648 1.4648-1.4648c0.8079 0 1.4649 0.657 1.4649 1.4648z" fill="#251007"/>
<path d="m27.832 47.266c-12.116 0-21.973 9.8569-21.973 21.973s9.8568 21.973 21.973 21.973c12.116 0 21.973-9.8568 21.973-21.973s-9.8568-21.973-21.973-21.973zm0 41.016c-10.5 0-19.043-8.5425-19.043-19.043s8.5425-19.043 19.043-19.043 19.043 8.5426 19.043 19.043-8.5426 19.043-19.043 19.043z" fill="#251007"/>
<path d="m27.832 63.379c-3.2308 0-5.8593 2.6285-5.8593 5.8594 0 3.2308 2.6285 5.8594 5.8593 5.8594 3.2309 0 5.8594-2.6286 5.8594-5.8594 0-3.2309-2.6285-5.8594-5.8594-5.8594zm0 8.7891c-1.6154 0-2.9297-1.3143-2.9297-2.9297s1.3143-2.9297 2.9297-2.9297c1.6155 0 2.9297 1.3143 2.9297 2.9297s-1.3142 2.9297-2.9297 2.9297z" fill="#251007"/>
<path d="m98.535 79.492h-11.69l-3.5099-17.55c-0.6823-3.4117-3.7028-5.8879-7.1819-5.8879h-2.9113v-21.973c0-4.0386-3.2856-7.3242-7.3242-7.3242h-4.542c-0.6805-3.339-3.6397-5.8594-7.1768-5.8594h-21.973v-10.644c0-4.0387-3.2856-7.3242-7.3243-7.3242h-20.508c-1.2529 0-2.4508 0.54043-3.2865 1.4824-0.83399 0.94004-1.2262 2.1953-1.0762 3.4441 0.26465 2.202 2.1736 3.8626 4.44 3.8626h18.966v30.036c-13.266 2.1135-23.438 13.632-23.438 27.484 0 15.347 12.485 27.832 27.832 27.832 15.347 0 27.832-12.485 27.832-27.832 0-3.6194-0.6952-7.0791-1.9577-10.254h16.606v8.789h-10.254c-0.809 0-1.4648 0.6559-1.4648 1.4649s0.6558 1.4648 1.4648 1.4648h10.254v5.9657c-4.9623 0.713-8.7891 4.991-8.7891 10.148 0 5.6541 4.5998 10.254 10.254 10.254s10.254-4.5998 10.254-10.254c0-5.1566-3.8267-9.4344-8.789-10.148v-17.684h2.9113c2.0875 0 3.8998 1.4857 4.3092 3.5326l3.7402 18.701c0.0033 0.0187 0.0071 0.0373 0.0112 0.0558l1.166 5.8299c0.1369 0.6848 0.7381 1.1775 1.4363 1.1775h11.719c0.8089 0 1.4648-0.6558 1.4648-1.4648v-5.8594c0-0.809-0.6559-1.4648-1.4648-1.4648zm-19.434 7.3242c0 4.0387-3.2856 7.3242-7.3243 7.3242-4.0386 0-7.3242-3.2855-7.3242-7.3242s3.2856-7.3242 7.3242-7.3242c4.0387 0 7.3243 3.2855 7.3243 7.3242zm-24.902-62.988c1.9098 0 3.5379 1.2248 4.1426 2.9297h-26.115v-2.9297h21.973zm-49.727-15.039c-0.77227 0-1.4449-0.56328-1.5313-1.2822-0.05078-0.42364 0.07676-0.83223 0.35899-1.1506 0.28027-0.31582 0.6793-0.49687 1.0949-0.49687h19.043v2.9297h-18.966zm21.895-2.6777c1.7049 0.60469 2.9297 2.2328 2.9297 4.1426v31.191c-0.4852-0.0252-0.9735-0.0385-1.4649-0.0385s-0.9797 0.0133-1.4648 0.0385v-35.333zm1.4648 88.029c-13.731 0-24.902-11.171-24.902-24.902 0-13.731 11.171-24.902 24.902-24.902 13.731 0 24.902 11.171 24.902 24.902 0 13.731-11.171 24.902-24.902 24.902zm24.506-38.086c-4.0418-7.4828-11.411-12.914-20.111-14.3v-3.2777h27.832c0.809 0 1.4648-0.6559 1.4648-1.4649s-0.6558-1.4648-1.4648-1.4648h-27.832v-5.8594h33.691c2.4232 0 4.3945 1.9713 4.3945 4.3945v1.4649h-4.3945c-0.809 0-1.4649 0.6558-1.4649 1.4648s0.6559 1.4649 1.4649 1.4649h4.3945v17.578h-17.975zm44.732 29.297h-9.0531l-0.5859-2.9297h9.639v2.9297z" fill="#251007"/>
</svg>
